src/assets/icons/credit-card.svg

<svg xmlns="http://www.w3.org/2000/svg" preserveAspectRatio="xMidYMid" viewBox="0 0 42 28">
  <path fill-rule="evenodd" d="M36.979 28H5.021C2.252 28 0 25.756 0 22.997V5.003C0 2.244 2.252 0 5.021 0h31.958C39.748 0 42 2.244 42 5.003v17.994C42 25.756 39.748 28 36.979 28zm2.243-22.997a2.242 2.242 0 0 0-2.243-2.235H5.021a2.242 2.242 0 0 0-2.243 2.235v1.989l36.444-.003V5.003zm0 17.994V10.939H2.778v12.058a2.242 2.242 0 0 0 2.243 2.235h31.958a2.242 2.242 0 0 0 2.243-2.235zm-6.477-.333a3.462 3.462 0 0 1-2.102-.707 3.466 3.466 0 0 1-2.102.707 3.464 3.464 0 0 1-3.471-3.458 3.465 3.465 0 0 1 3.471-3.459c.79 0 1.518.264 2.102.708a3.456 3.456 0 0 1 2.102-.708 3.465 3.465 0 0 1 3.47 3.459 3.464 3.464 0 0 1-3.47 3.458zm-18.915 0H6.226a.493.493 0 0 1-.494-.492v-1.495c0-.271.221-.491.494-.491h7.604c.273 0 .493.22.493.491v1.495c0 .272-.22.492-.493.492z"/>
</svg>

<svg xmlns="http://www.w3.org/2000/svg" xmlns:xlink="http://www.w3.org/1999/xlink" preserveAspectRatio="xMidYMid" width="42" height="28" viewBox="0 0 42 28">
  <defs>
    <style>
      .cls-1 {
        fill: #7a7a7a;
        fill-rule: evenodd;
      }
    </style>
  </defs>
  <path d="M36.979,28.000 L5.021,28.000 C2.252,28.000 0.000,25.756 0.000,22.997 L0.000,5.003 C0.000,2.244 2.252,-0.000 5.021,-0.000 L36.979,-0.000 C39.748,-0.000 42.000,2.244 42.000,5.003 L42.000,22.997 C42.000,25.756 39.748,28.000 36.979,28.000 ZM39.222,5.003 C39.222,3.771 38.216,2.768 36.979,2.768 L5.021,2.768 C3.784,2.768 2.778,3.771 2.778,5.003 L2.778,6.992 L39.222,6.989 L39.222,5.003 ZM39.222,22.997 L39.222,10.939 L2.778,10.939 L2.778,22.997 C2.778,24.229 3.784,25.232 5.021,25.232 L36.979,25.232 C38.216,25.232 39.222,24.229 39.222,22.997 L39.222,22.997 ZM32.745,22.664 C31.954,22.664 31.226,22.400 30.643,21.957 C30.059,22.400 29.331,22.664 28.541,22.664 C26.624,22.664 25.070,21.116 25.070,19.206 C25.070,17.296 26.624,15.747 28.541,15.747 C29.331,15.747 30.059,16.011 30.643,16.455 C31.226,16.011 31.954,15.747 32.745,15.747 C34.661,15.747 36.215,17.296 36.215,19.206 C36.215,21.116 34.661,22.664 32.745,22.664 ZM13.830,22.664 L6.226,22.664 C5.953,22.664 5.732,22.444 5.732,22.172 L5.732,20.677 C5.732,20.406 5.953,20.186 6.226,20.186 L13.830,20.186 C14.103,20.186 14.323,20.406 14.323,20.677 L14.323,22.172 C14.323,22.444 14.103,22.664 13.830,22.664 Z" class="cls-1"/>
</svg>
